markets/ZEC.svg

<svg width="42" height="42" viewBox="0 0 42 42" fill="none" xmlns="http://www.w3.org/2000/svg">
<g clip-path="url(#clip0_7277_55468)">
<ellipse cx="21.042" cy="21" rx="20.9578" ry="21" fill="#06061B"/>
<path d="M20.8696 0.0319824C9.36078 0.0319824 0 9.42385 0 20.9709C0 32.518 9.36078 41.9099 20.8696 41.9099C32.3785 41.9099 41.7393 32.518 41.7393 20.9709C41.7393 9.42385 32.3785 0.0319824 20.8696 0.0319824ZM20.8696 38.4541C11.2589 38.4541 3.44432 30.6136 3.44432 20.9709C3.44432 11.3282 11.2589 3.48775 20.8696 3.48775C30.4804 3.48775 38.2949 11.3282 38.2949 20.9709C38.2949 30.6136 30.4804 38.4541 20.8696 38.4541V38.4541Z" fill="#231F20"/>
<path d="M20.8696 37.4694C29.9513 37.4694 37.3135 30.0827 37.3135 20.9709C37.3135 11.859 29.9513 4.47241 20.8696 4.47241C11.7879 4.47241 4.42578 11.859 4.42578 20.9709C4.42578 30.0827 11.7879 37.4694 20.8696 37.4694Z" fill="#F4B728"/>
<path d="M13.425 27.483V30.6787H19.1193V34.1809H22.6192V30.6787H28.3134V26.4519H19.4804L28.3134 14.431V11.2354H22.6192V7.74243H19.1193V11.2354H13.425V15.4714H22.2581L13.425 27.483Z" fill="#231F20"/>
</g>
<defs>
<clipPath id="clip0_7277_55468">
<rect width="42" height="42" rx="21" fill="white"/>
</clipPath>
</defs>
</svg>

<svg xmlns="http://www.w3.org/2000/svg" width="42" height="42" fill="none"><g clip-path="url(#a)"><ellipse cx="21.042" cy="21" fill="#06061B" rx="20.958" ry="21"/><path fill="#231F20" d="M20.87.032C9.36.032 0 9.424 0 20.971S9.36 41.91 20.87 41.91c11.509 0 20.87-9.392 20.87-20.94C41.74 9.425 32.378.033 20.87.033Zm0 38.422c-9.611 0-17.426-7.84-17.426-17.483S11.26 3.488 20.87 3.488c9.61 0 17.425 7.84 17.425 17.483S30.48 38.454 20.87 38.454Z"/><path fill="#F4B728" d="M20.87 37.47c9.081 0 16.443-7.387 16.443-16.5 0-9.111-7.362-16.498-16.443-16.498-9.082 0-16.444 7.387-16.444 16.499 0 9.112 7.362 16.498 16.444 16.498Z"/><path fill="#231F20" d="M13.425 27.483v3.196h5.694v3.502h3.5v-3.502h5.694v-4.227H19.48l8.833-12.021v-3.196H22.62V7.742h-3.5v3.493h-5.694v4.236h8.833l-8.833 12.012Z"/></g><defs><clipPath id="a"><rect width="42" height="42" fill="#fff" rx="21"/></clipPath></defs></svg>
